X:166
T: ICH FUHR WOHL UEBERN SEE
N: Z0165
O: Europa, Mitteleuropa, Deutschland, Herzogtum Berg
R: Erzaehlung, lustige Romanze
M: 2/4
L: 1/16
K: E
B,2 | E2F2=G2A2 | B2B=cB2
B2 | =c2B2A2A2 | =G6
B2 | B2A2=c2B2 | A3BA4 |
=GGG2GFE2 | F3=GF2
B2 | B2A2=c2B2 | A3BA2
=G2 | F2E2B2B2 | z8 |
F2E2B2B2 | E4z2

@@@ Tune index: 9924
